X: 27360
T: Mitre Bar, The
R: reel
M: 4/4
K: Gmajor
|:GD (3DDD GE (3EEE|DEGA BEFA|GD (3DDD GE (3EEE|B2AG FDEF|
GD (3DDD GE (3EEE|DEGA BGBc|c2Bc BABE|FBAF G2G2:|
|:dD (3DDD cD (3DDD|BAGA BGBc|dD (3DDD cD (3DDD|fdcA G2Bc|
dD (3DDD cD (3DDD|BAGA BGED|GABG c2Bd|1 fdcA G2 Bc:|2 fdcA G4||

